X:143
T:High
Z: id:dc-reel-131
M:C
L:1/8
K:A Mixolydian
a2fa ecA2|cAeA fAeA|a2fa ecA2|Bcdc BGG2|!
a2fa ecA2|cdef g2fg|afge fdec|Bcdc BGG2:|!
cAeA fAeA|cAaf ecA2|cAeA fAec|Bcdc BGG2|!
cAeA fAed|cdef g2fg|afge fdec|Bcdc BGG2:|!

